svg/u1f469_200d_1f680.svg

<svg viewBox="0 0 128 128" xmlns="http://www.w3.org/2000/svg">
  <g id="suit_1_">
    <g id="XMLID_134_">
      <linearGradient id="SVGID_1_" gradientTransform="matrix(1 0 0 -1 0 128)" gradientUnits="userSpaceOnUse" x1="63.82" x2="63.82" y1="4.3803" y2="35.6559">
        <stop offset="0" stop-color="#B3B3B3"/>
        <stop offset="0.0332" stop-color="#B7B7B7"/>
        <stop offset="0.3745" stop-color="#D9D9D9"/>
        <stop offset="0.5592" stop-color="#E6E6E6"/>
      </linearGradient>
      <path d="M64.35,92.23c-0.04,0-0.09,0-0.13,0c-25.82,0.04-52.19,9.31-52.19,31.37v0.37h1.5h1.57 h97.57h1.44h1.5v-0.37C115.61,102.81,90.28,92.23,64.35,92.23z" fill="url(#SVGID_1_)"/>
    </g>
    <path d="M89.07,123.97v-8.7c0-2.19-1.79-3.99-3.99-3.99H44.64c-2.19,0-3.99,1.79-3.99,3.99v8.7H89.07z" fill="#A6A6A6"/>
    <path d="M116.11,123.97v-0.35c0-5.12-2.25-8.34-3.4-11.25l-8.06,2.81l3.29,8.8H116.11z" fill="#757575"/>
    <path d="M20.45,123.97c0.19-1.03,0.3-2.08,0.3-3.16c0-4.02-1.62-7.73-4.43-10.77 c-2.73,3.6-4.2,7.67-4.2,12.22v1.71L20.45,123.97L20.45,123.97z" fill="#757575"/>
    <g>
      <linearGradient id="SVGID_2_" gradientTransform="matrix(1 0 0 -1 0 128)" gradientUnits="userSpaceOnUse" x1="63.9285" x2="63.9285" y1="36.1356" y2="18.1077">
        <stop offset="4.100000e-03" stop-color="#E6E6E6"/>
        <stop offset="0.3332" stop-color="#D9D9D9"/>
        <stop offset="0.9409" stop-color="#B7B7B7"/>
        <stop offset="1" stop-color="#B3B3B3"/>
      </linearGradient>
      <path d="M97.4,102.53c-11.44,4.91-23.94,7.24-36.38,6.81c-6.12-0.21-12.22-1.09-18.15-2.61 c-3.09-0.79-6.14-1.76-9.12-2.89c-2.67-1.02-5.37-2.03-7.34-4.2c-1.75-1.93-2.85-4.62-2.26-7.24c0.59-2.6,2.58-4.82,5.02-5.83 c2.79-1.16,5.77-0.89,8.5,0.24c2.8,1.17,5.66,2.17,8.58,2.96c11.9,3.23,24.63,3.12,36.48-0.3c1.69-0.49,3.36-1.04,5.01-1.66 c1.63-0.61,3.21-1.45,4.92-1.8c2.92-0.6,6.24,0.03,8.51,2.05c2.3,2.05,3.34,5.28,2.34,8.23 C102.53,99.15,100.12,101.36,97.4,102.53z" fill="url(#SVGID_2_)"/>
    </g>
  </g>
  <ellipse id="helmet_x5F_back_1_" cx="63.95" cy="52.97" fill="#4C4C4C" rx="49.17" ry="48.69"/>
  <path d="M110.39,53.04c-0.02,9.57-3,18.47-8.09,25.83c-0.33,0.48-0.67,0.95-1.02,1.41 c-0.59,0.8-1.21,1.57-1.85,2.32c-2.5,2.92-5.34,5.52-8.49,7.75c-4.77,3.38-10.2,5.89-16.08,7.28c-0.61,0.16-1.22,0.29-1.84,0.41 c-2.96,0.59-6.01,0.89-9.14,0.89c-3.09,0-6.11-0.31-9.03-0.88c-0.66-0.13-1.31-0.27-1.95-0.43c-6.06-1.47-11.66-4.12-16.53-7.7 c-2.99-2.18-5.7-4.71-8.06-7.52c-0.55-0.65-1.07-1.3-1.58-1.98v-0.01c-0.35-0.45-0.69-0.91-1.01-1.38 c-5.19-7.43-8.23-16.44-8.21-26.13c0.02-11.97,4.68-22.88,12.29-31.05C38.32,12.72,50.51,7,64.02,7.02 c14.58,0.02,27.6,6.72,36.1,17.17C106.56,32.09,110.41,42.13,110.39,53.04z" fill="#212121"/>
  <g id="hairGroup_1_">
    <path id="hair" d="M102.88,45.26c0,10.61-0.35,23.17-1.6,35.02c-0.59,0.8-1.21,1.57-1.85,2.32 c-2.5,2.92-5.34,5.52-8.49,7.75c-4.77,3.38-10.2,5.89-16.08,7.28c-0.61,0.16-1.22,0.29-1.84,0.41c-2.96,0.59-6.01,0.89-9.14,0.89 c-3.09,0-6.11-0.31-9.03-0.88c-0.66-0.13-1.31-0.27-1.95-0.43c-6.06-1.47-11.66-4.12-16.53-7.7c-2.99-2.18-5.7-4.71-8.06-7.52 c-0.55-0.65-1.07-1.3-1.58-1.98v-0.01c-1.26-11.89-1.62-24.5-1.62-35.15c0-0.31-0.09-9.95,5.73-18.95 c5.17-8,15.01-15.49,33.71-15.49c20.47,0,30.02,8.98,34.47,17.76C103.22,36.86,102.88,44.98,102.88,45.26z" fill="#543930"/>
    <radialGradient id="hairHighlights_2_" cx="63.9983" cy="60.7403" gradientTransform="matrix(1 0 0 -1.1901 0 139.5443)" gradientUnits="userSpaceOnUse" r="41.7092">
      <stop offset="0.7936" stop-color="#6D4C41" stop-opacity="0"/>
      <stop offset="1" stop-color="#6D4C41"/>
    </radialGradient>
    <path id="hairHighlights_1_" d="M102.88,45.26c0,10.61-0.35,23.17-1.6,35.02 c-0.59,0.8-1.21,1.57-1.85,2.32c-2.5,2.92-5.34,5.52-8.49,7.75c-4.77,3.38-10.2,5.89-16.08,7.28c-0.61,0.16-1.22,0.29-1.84,0.41 c-2.96,0.59-6.01,0.89-9.14,0.89c-3.09,0-6.11-0.31-9.03-0.88c-0.66-0.13-1.31-0.27-1.95-0.43c-6.06-1.47-11.66-4.12-16.53-7.7 c-2.99-2.18-5.7-4.71-8.06-7.52c-0.55-0.65-1.08-1.31-1.58-1.99c-1.26-11.89-1.62-24.5-1.62-35.15c0-0.31-0.09-9.95,5.73-18.95 c5.17-8,15.01-15.49,33.71-15.49c20.47,0,30.02,8.98,34.47,17.76C103.22,36.86,102.88,44.98,102.88,45.26z" fill="url(#hairHighlights_2_)"/>
  </g>
  <path id="neck" d="M74.87,91.79l-0.01,5.84c-0.61,0.16-1.22,0.29-1.84,0.41c-2.96,0.59-6.01,0.89-9.14,0.89 c-3.09,0-6.11-0.31-9.03-0.88c-0.66-0.13-1.31-0.27-1.95-0.43l0.01-5.86L74.87,91.79z" fill="#E59600"/>
  <path id="head" d="M95.99,56.3c0,21.18-13.13,33.69-24.54,37.71c-2.7,0.95-5.31,1.43-7.62,1.43 c-2.33,0-4.95-0.49-7.67-1.45c-11.4-4.04-24.49-16.54-24.49-37.69c0-15.3,5.22-25.9,12.87-32.07c6.03-2.32,12.57-3.59,19.42-3.59 c6.66,0,13.04,1.2,18.94,3.41C90.67,30.2,95.99,40.86,95.99,56.3z" fill="#FFCA28"/>
  <path id="nose" d="M67.53,68.05c-0.1-0.04-0.21-0.07-0.31-0.08h-6.78c-0.1,0.01-0.21,0.04-0.31,0.08 c-0.61,0.25-0.95,0.89-0.66,1.56c0.29,0.68,1.64,2.58,4.36,2.58s4.07-1.9,4.36-2.58C68.49,68.94,68.15,68.3,67.53,68.05z" fill="#E59600"/>
  <g id="eyes">
    <ellipse cx="48.06" cy="59.14" fill="#404040" rx="4.73" ry="4.89"/>
    <ellipse cx="79.61" cy="59.14" fill="#404040" rx="4.73" ry="4.89"/>
  </g>
  <g id="eyebrows">
    <path d="M55.08,50.35c-0.9-1.19-2.98-2.93-7.02-2.93s-6.12,1.73-7.02,2.93c-0.4,0.53-0.3,1.14-0.02,1.5 c0.26,0.34,1.01,0.66,1.85,0.38c0.83-0.28,2.47-1.13,5.2-1.15c2.73,0.02,4.36,0.86,5.2,1.15c0.83,0.28,1.59-0.03,1.85-0.38 C55.38,51.48,55.48,50.87,55.08,50.35z" fill="#6D4C41"/>
    <path d="M86.63,50.35c-0.9-1.19-2.98-2.93-7.02-2.93s-6.12,1.73-7.02,2.93c-0.4,0.53-0.3,1.14-0.02,1.5 c0.26,0.34,1.01,0.66,1.85,0.38c0.83-0.28,2.47-1.13,5.2-1.15c2.73,0.02,4.36,0.86,5.2,1.15c0.83,0.28,1.59-0.03,1.85-0.38 C86.92,51.48,87.02,50.87,86.63,50.35z" fill="#6D4C41"/>
  </g>
  <path id="mouth" d="M71.91,75.9c-3.05,1.82-13.07,1.82-16.12,0c-1.75-1.04-3.55,0.55-2.82,2.15 c0.72,1.57,6.18,5.2,10.9,5.2s10.12-3.64,10.83-5.2C75.43,76.45,73.66,74.85,71.91,75.9z" fill="#795548"/>
  <g id="hairGroup">
    <path id="hair_5_" d="M64.55,8.8c-39.76,0-39.44,33.86-39.44,34.44c0,7.52,0.18,16.02,0.73,24.55l6.51-0.02 c-0.05-2.83,1.93-20.33,7.83-21.66c21.68-4.87,33.95-16.37,33.95-16.37c3.19,6.97,13.16,13.76,16.75,16.34 c2.94,2.12,3.84,17.99,3.78,21.7h7.47c0-0.05,0.02-0.1,0.02-0.15c0.54-8.48,0.72-16.93,0.72-24.4 C102.88,42.65,104.31,8.8,64.55,8.8z" fill="#543930"/>
    <radialGradient id="hairHighlights_3_" cx="64.1233" cy="67.9373" gradientTransform="matrix(1 0 0 -1.2135 0 142.5075)" gradientUnits="userSpaceOnUse" r="42.9042">
      <stop offset="0.7945" stop-color="#6D4C41" stop-opacity="0"/>
      <stop offset="1" stop-color="#6D4C41"/>
    </radialGradient>
    <path id="hairHighlights" d="M64.55,8.8c-39.76,0-39.44,33.86-39.44,34.44 c0,7.52,0.18,16.02,0.73,24.55l6.51-0.02c-0.05-2.83,1.93-20.33,7.83-21.66c21.68-4.87,33.95-16.37,33.95-16.37 c3.19,6.97,13.16,13.76,16.75,16.34c2.94,2.12,3.84,17.99,3.78,21.7h7.47c0-0.05,0.02-0.1,0.02-0.15 c0.54-8.48,0.72-16.93,0.72-24.4C102.88,42.65,104.31,8.8,64.55,8.8z" fill="url(#hairHighlights_3_)"/>
  </g>
  <g id="helmet_1_">
    <radialGradient id="SVGID_3_" cx="64.7178" cy="120.4697" gradientTransform="matrix(1 0 0 -1 0 128)" gradientUnits="userSpaceOnUse" r="26.0012">
      <stop offset="5.000000e-03" stop-color="#F2F2F2"/>
      <stop offset="0.4222" stop-color="#E5E5E5"/>
      <stop offset="1" stop-color="#CCCCCC"/>
    </radialGradient>
    <path d="M113.13,53.21c0,0.24-0.01,0.48-0.01,0.73c-3.27-6.99-7.99-13.17-13.77-18.15 c-4.82-4.16-10.37-7.48-16.45-9.74c-5.9-2.21-12.28-3.41-18.94-3.41c-6.85,0-13.39,1.27-19.42,3.59c-6,2.29-11.49,5.64-16.25,9.79 c-5.65,4.95-10.27,11.04-13.49,17.92c0-0.25-0.02-0.49-0.02-0.73C14.36,26.41,36.5,4.03,63.96,4.03 C91.12,4.03,113.13,26.05,113.13,53.21z" fill="url(#SVGID_3_)"/>
  </g>
</svg>

<svg viewBox="0 0 128 128" xmlns="http://www.w3.org/2000/svg">
  <defs>
    <radialGradient id="hairHighlights_2_" cx="63.9983" cy="-56.513964" gradientTransform="matrix(1 0 0 -1.1901 0 0)" gradientUnits="userSpaceOnUse" r="41.7092">
      <stop offset="0.7936" stop-color="#6D4C41" stop-opacity="0"/>
      <stop offset="1" stop-color="#6D4C41"/>
    </radialGradient>
    <radialGradient id="hairHighlights_3_" cx="64.1233" cy="-49.497805" gradientTransform="matrix(1 0 0 -1.2135 0 0)" gradientUnits="userSpaceOnUse" r="42.9042">
      <stop offset="0.7945" stop-color="#6D4C41" stop-opacity="0"/>
      <stop offset="1" stop-color="#6D4C41"/>
    </radialGradient>
    <radialGradient id="SVGID_3_" cx="64.7178" cy="-7.5303" gradientTransform="matrix(1 0 0 -1 0 0)" gradientUnits="userSpaceOnUse" r="26.0012">
      <stop offset="5.000000e-03" stop-color="#F2F2F2"/>
      <stop offset="0.4222" stop-color="#E5E5E5"/>
      <stop offset="1" stop-color="#CCCCCC"/>
    </radialGradient>
    <linearGradient id="SVGID_1_" gradientTransform="matrix(1 0 0 -1 0 0)" gradientUnits="userSpaceOnUse" x1="63.82" x2="63.82" y1="-123.6197" y2="-92.3441">
      <stop offset="0" stop-color="#B3B3B3"/>
      <stop offset="0.0332" stop-color="#B7B7B7"/>
      <stop offset="0.3745" stop-color="#D9D9D9"/>
      <stop offset="0.5592" stop-color="#E6E6E6"/>
    </linearGradient>
    <linearGradient id="SVGID_2_" gradientTransform="matrix(1 0 0 -1 0 0)" gradientUnits="userSpaceOnUse" x1="63.9285" x2="63.9285" y1="-91.8644" y2="-109.8923">
      <stop offset="4.100000e-03" stop-color="#E6E6E6"/>
      <stop offset="0.3332" stop-color="#D9D9D9"/>
      <stop offset="0.9409" stop-color="#B7B7B7"/>
      <stop offset="1" stop-color="#B3B3B3"/>
    </linearGradient>
  </defs>
  <path d="M64.35,92.23 C64.31,92.23 64.26,92.23 64.22,92.23 C38.4,92.27 12.03,101.54 12.03,123.6 L12.03,123.97 L13.53,123.97 L15.1,123.97 L112.67,123.97 L114.11,123.97 L115.61,123.97 L115.61,123.6 C115.61,102.81 90.28,92.23 64.35,92.23 Z" fill="url(#SVGID_1_)"/>
  <path d="M89.07,123.97 L89.07,115.27 C89.07,113.08 87.28,111.28 85.08,111.28 L44.64,111.28 C42.45,111.28 40.65,113.07 40.65,115.27 L40.65,123.97 L89.07,123.97 Z" fill="#A6A6A6"/>
  <path d="M116.11,123.97 L116.11,123.62 C116.11,118.5 113.86,115.28 112.71,112.37 L104.65,115.18 L107.94,123.98 L116.11,123.98 Z" fill="#757575"/>
  <path d="M20.45,123.97 C20.64,122.94 20.75,121.89 20.75,120.81 C20.75,116.79 19.13,113.08 16.32,110.04 C13.59,113.64 12.12,117.71 12.12,122.26 L12.12,123.97 L20.45,123.97 L20.45,123.97 Z" fill="#757575"/>
  <path d="M97.4,102.53 C85.96,107.44 73.46,109.77 61.02,109.34 C54.9,109.13 48.8,108.25 42.87,106.73 C39.78,105.94 36.73,104.97 33.75,103.84 C31.08,102.82 28.38,101.81 26.41,99.64 C24.66,97.71 23.56,95.02 24.15,92.4 C24.74,89.8 26.73,87.58 29.17,86.57 C31.96,85.41 34.94,85.68 37.67,86.81 C40.47,87.98 43.33,88.98 46.25,89.77 C58.15,93 70.88,92.89 82.73,89.47 C84.42,88.98 86.09,88.43 87.74,87.81 C89.37,87.2 90.95,86.36 92.66,86.01 C95.58,85.41 98.9,86.04 101.17,88.06 C103.47,90.11 104.51,93.34 103.51,96.29 C102.53,99.15 100.12,101.36 97.4,102.53 Z" fill="url(#SVGID_2_)"/>
  <path id="helmet_x5F_back_1_" d="M113.12,52.97 A49.17 48.69 0 1 1 14.78,52.97 A49.17 48.69 0 1 1 113.12,52.97 Z" fill="#4C4C4C"/>
  <path d="M110.39,53.04 C110.37,62.61 107.39,71.51 102.3,78.87 C101.97,79.35 101.63,79.82 101.28,80.28 C100.69,81.08 100.07,81.85 99.43,82.6 C96.93,85.52 94.09,88.12 90.94,90.35 C86.17,93.73 80.74,96.24 74.86,97.63 C74.25,97.79 73.64,97.92 73.02,98.04 C70.06,98.63 67.01,98.93 63.88,98.93 C60.79,98.93 57.77,98.62 54.85,98.05 C54.19,97.92 53.54,97.78 52.9,97.62 C46.84,96.15 41.24,93.5 36.37,89.92 C33.38,87.74 30.67,85.21 28.31,82.4 C27.76,81.75 27.24,81.1 26.73,80.42 L26.73,80.41 C26.38,79.96 26.04,79.5 25.72,79.03 C20.53,71.6 17.49,62.59 17.51,52.9 C17.53,40.93 22.19,30.02 29.8,21.85 C38.32,12.72 50.51,7 64.02,7.02 C78.6,7.04 91.62,13.74 100.12,24.19 C106.56,32.09 110.41,42.13 110.39,53.04 Z" fill="#212121"/>
  <path id="hair" d="M102.88,45.26 C102.88,55.87 102.53,68.43 101.28,80.28 C100.69,81.08 100.07,81.85 99.43,82.6 C96.93,85.52 94.09,88.12 90.94,90.35 C86.17,93.73 80.74,96.24 74.86,97.63 C74.25,97.79 73.64,97.92 73.02,98.04 C70.06,98.63 67.01,98.93 63.88,98.93 C60.79,98.93 57.77,98.62 54.85,98.05 C54.19,97.92 53.54,97.78 52.9,97.62 C46.84,96.15 41.24,93.5 36.37,89.92 C33.38,87.74 30.67,85.21 28.31,82.4 C27.76,81.75 27.24,81.1 26.73,80.42 L26.73,80.41 C25.47,68.52 25.11,55.91 25.11,45.26 C25.11,44.95 25.02,35.31 30.84,26.31 C36.01,18.31 45.85,10.82 64.55,10.82 C85.02,10.82 94.57,19.8 99.02,28.58 C103.22,36.86 102.88,44.98 102.88,45.26 Z" fill="#543930"/>
  <path id="hairHighlights_1_" d="M102.88,45.26 C102.88,55.87 102.53,68.43 101.28,80.28 C100.69,81.08 100.07,81.85 99.43,82.6 C96.93,85.52 94.09,88.12 90.94,90.35 C86.17,93.73 80.74,96.24 74.86,97.63 C74.25,97.79 73.64,97.92 73.02,98.04 C70.06,98.63 67.01,98.93 63.88,98.93 C60.79,98.93 57.77,98.62 54.85,98.05 C54.19,97.92 53.54,97.78 52.9,97.62 C46.84,96.15 41.24,93.5 36.37,89.92 C33.38,87.74 30.67,85.21 28.31,82.4 C27.76,81.75 27.23,81.09 26.73,80.41 C25.47,68.52 25.11,55.91 25.11,45.26 C25.11,44.95 25.02,35.31 30.84,26.31 C36.01,18.31 45.85,10.82 64.55,10.82 C85.02,10.82 94.57,19.8 99.02,28.58 C103.22,36.86 102.88,44.98 102.88,45.26 Z" fill="url(#hairHighlights_2_)"/>
  <path id="neck" d="M74.87,91.79 L74.86,97.63 C74.25,97.79 73.64,97.92 73.02,98.04 C70.06,98.63 67.01,98.93 63.88,98.93 C60.79,98.93 57.77,98.62 54.85,98.05 C54.19,97.92 53.54,97.78 52.9,97.62 L52.91,91.76 L74.87,91.79 Z" fill="#E59600"/>
  <path id="head" d="M95.99,56.3 C95.99,77.48 82.86,89.99 71.45,94.01 C68.75,94.96 66.14,95.44 63.83,95.44 C61.5,95.44 58.88,94.95 56.16,93.99 C44.76,89.95 31.67,77.45 31.67,56.3 C31.67,41 36.89,30.4 44.54,24.23 C50.57,21.91 57.11,20.64 63.96,20.64 C70.62,20.64 77,21.84 82.9,24.05 C90.67,30.2 95.99,40.86 95.99,56.3 Z" fill="#FFCA28"/>
  <path id="nose" d="M67.53,68.05 C67.43,68.01 67.32,67.98 67.22,67.97 L60.44,67.97 C60.34,67.98 60.23,68.01 60.13,68.05 C59.52,68.3 59.18,68.94 59.47,69.61 C59.76,70.29 61.11,72.19 63.83,72.19 C66.55,72.19 67.9,70.29 68.19,69.61 C68.49,68.94 68.15,68.3 67.53,68.05 Z" fill="#E59600"/>
  <path d="M52.79,59.14 A4.73 4.89 0 1 1 43.33,59.14 A4.73 4.89 0 1 1 52.79,59.14 Z" fill="#404040"/>
  <path d="M84.34,59.14 A4.73 4.89 0 1 1 74.88,59.14 A4.73 4.89 0 1 1 84.34,59.14 Z" fill="#404040"/>
  <path d="M55.08,50.35 C54.18,49.16 52.1,47.42 48.06,47.42 C44.02,47.42 41.94,49.15 41.04,50.35 C40.64,50.88 40.74,51.49 41.02,51.85 C41.28,52.19 42.03,52.51 42.87,52.23 C43.7,51.95 45.34,51.1 48.07,51.08 C50.8,51.1 52.43,51.94 53.27,52.23 C54.1,52.51 54.86,52.2 55.12,51.85 C55.38,51.48 55.48,50.87 55.08,50.35 Z" fill="#6D4C41"/>
  <path d="M86.63,50.35 C85.73,49.16 83.65,47.42 79.61,47.42 C75.57,47.42 73.49,49.15 72.59,50.35 C72.19,50.88 72.29,51.49 72.57,51.85 C72.83,52.19 73.58,52.51 74.42,52.23 C75.25,51.95 76.89,51.1 79.62,51.08 C82.35,51.1 83.98,51.94 84.82,52.23 C85.65,52.51 86.41,52.2 86.67,51.85 C86.92,51.48 87.02,50.87 86.63,50.35 Z" fill="#6D4C41"/>
  <path id="mouth" d="M71.91,75.9 C68.86,77.72 58.84,77.72 55.79,75.9 C54.04,74.86 52.24,76.45 52.97,78.05 C53.69,79.62 59.15,83.25 63.87,83.25 C68.59,83.25 73.99,79.61 74.7,78.05 C75.43,76.45 73.66,74.85 71.91,75.9 Z" fill="#795548"/>
  <path id="hair_5_" d="M64.55,8.8 C24.79,8.8 25.11,42.66 25.11,43.24 C25.11,50.76 25.29,59.26 25.84,67.79 L32.35,67.77 C32.3,64.94 34.28,47.44 40.18,46.11 C61.86,41.24 74.13,29.74 74.13,29.74 C77.32,36.71 87.29,43.5 90.88,46.08 C93.82,48.2 94.72,64.07 94.66,67.78 L102.13,67.78 C102.13,67.73 102.15,67.68 102.15,67.63 C102.69,59.15 102.87,50.7 102.87,43.23 C102.88,42.65 104.31,8.8 64.55,8.8 Z" fill="#543930"/>
  <path id="hairHighlights" d="M64.55,8.8 C24.79,8.8 25.11,42.66 25.11,43.24 C25.11,50.76 25.29,59.26 25.84,67.79 L32.35,67.77 C32.3,64.94 34.28,47.44 40.18,46.11 C61.86,41.24 74.13,29.74 74.13,29.74 C77.32,36.71 87.29,43.5 90.88,46.08 C93.82,48.2 94.72,64.07 94.66,67.78 L102.13,67.78 C102.13,67.73 102.15,67.68 102.15,67.63 C102.69,59.15 102.87,50.7 102.87,43.23 C102.88,42.65 104.31,8.8 64.55,8.8 Z" fill="url(#hairHighlights_3_)"/>
  <path d="M113.13,53.21 C113.13,53.45 113.12,53.69 113.12,53.94 C109.85,46.95 105.13,40.77 99.35,35.79 C94.53,31.63 88.98,28.31 82.9,26.05 C77,23.84 70.62,22.64 63.96,22.64 C57.11,22.64 50.57,23.91 44.54,26.23 C38.54,28.52 33.05,31.87 28.29,36.02 C22.64,40.97 18.02,47.06 14.8,53.94 C14.8,53.69 14.78,53.45 14.78,53.21 C14.36,26.41 36.5,4.03 63.96,4.03 C91.12,4.03 113.13,26.05 113.13,53.21 Z" fill="url(#SVGID_3_)"/>
</svg>
